X:1
T:Nella Resurettione
T:Nella Resurettione
T:Giovanni Pietro Biandra
T:Aria
T:Source : Madrigaletti a 1, 2 e 3 voci. Libro primo---Venezia---B.Magni (Gardano)---1626. Editor : André Vierendeels (16/03/15).
T:Notes : Original clefs : F4, F4 
C:Giovanni Pietro Biandra
%%score 1 2
L:1/8
Q:1/4=80
M:3/2
K:C
V:1 bass nm="Bass" snm="B"
V:2 bass nm="MusicXML Part"
V:1
 A,2 B,C F,2 G,A, D,2 E,2 | A,,4 A,,4 D,2 E,F, | E,2 F,G, ^F,2 G,A, G,4 | G,4 C2 G,2 A,2 E,2 | %4
w: Hor ces- * s'il _ _ pian- *|* to rim- bom- *|b'il _ _ can _ _ to|ro- tse _ la _|
w: Go- di _ Ma- ri- * * *|* a, cle- men- *|t'e pi- * * * * *|a, sei Ma- da- le-|
w: Pier- ro _ d'Al- lo- * * *|* ri, or- ni'e _|in- fo- * * * * *|ri, da l'al- to mon-|
w: Deh sor- * gi'ho- * * * *|* mai, ho- mo _|che fa- * * * * *|i, se sei ca- du-|
 ^F,2 D,2 B,,4 B,,4 | C,2 D,2 E,4 ^D,4 | E,4 E,4 z4 ::[M:4/4] z2 G,2 G,3 G, | ^G,2 G,2 z2 A,2 | %9
w: pie- * tra os-|cu- * ra, e|the- tra,|o- ve gia|mor- to ho-|
w: * * na, fuor|d'o- * * gni|pe- na,|va- ge si|mo- stra, la|
w: * * te, la|me- * * sta|fron- te,-|lie- to'e fe-|sto- so, non|
w: * * to, cre-|del _ _ a-|iu- to,|o- gn'un di|co- re, vol-|
 A,3 ^G, A,2 A,2 | z2 F,2 E,2 D,2 | E,D, E,F, G,4 | F,2 D,2 D,2 ^C,2 | D,2 D,2 z2 G,2 | %14
w: ra ri- sor- to|tut- to pia-|ga- * * * *|to sta- va fer-|ra- to, tut-|
w: ter- ra no- stra,|sta tut- to'il|mon- * * * do|li- e- to'e gio-|con- do, sta|
w: piu no- io- so,|die- ta le-|va- * * * *|ro fia'il mio pec-|ca- to, die-|
w: to'al Si- gno- re,|di- ca'al- le-|lu- * * * *|a can- ti'al- le-|lu- ia, di|
 F,2 E,2 F,E, F,G, | A,4 G,2 C2 |1 B,3 B, A,2 A,2 :|2 B,3 B, A,2 A,2- || A,8 |] %19
w: to pia- ga- * * *|* to sta|va fer- ra- to,|va fer- ra- to.|_|
w: tut- to'il mon- * * *|do ll- e-|to'e gio- con- do,|to'e gio- con- do.|_|
w: ta le- va- * * *|* ro fia'il|mio pec- ca- to,|mio pec- ca- to.|_|
w: ca'al- le lu- * * *|* ia can-|ti'al- le- lu- ia,|ti'al- le- lu- ia.|_|
V:2
 A,4 F,4 D,2 E,2 | A,,4 A,,4 B,,4 | C,4 D,4 G,,4 | G,,4 E,4 ^C,4 | D,4 G,,4 G,,4 | C,4 A,,4 B,,4 | %6
 E,4 E,4 z4 ::[M:4/4] C,2 B,,2 C,2 D,2 | E,4 F,3 E, | D,2 E,2 A,,4 | D,8 | C,4 B,,2 C,2 | %12
 D,2 G,,2 A,,4 | D,4 E,4 | D,2 C,2 D,4 | F,4 C,2 A,,2 |1 E,4 A,,4 :|2 E,4 A,,4- || A,,8 |] %19

